X:1
T:Lead Me Gently Home, Father
T:Lead Me Gently Home, Father
T:Will Lamartine Thompson
T:Will Lamartine Thompson, 1879
T:Public Domain Courtesy of the Cyber Hymnal™
T:Public Domain Courtesy of the Cyber Hymnal™
C:Will Lamartine Thompson
Z:Public Domain
Z:Courtesy of the Cyber Hymnal™
%%score ( 1 2 ) ( 3 4 )
L:1/8
M:4/4
K:Eb
V:1 treble 
V:2 treble 
V:3 bass 
V:4 bass 
V:1
"^Solo or duet" [EG]3 [FA]"^ad lib." [^F=A]2 [GB]2 | [Ac]4 [GB]2 [EG]2 | [ce]3 [ce] [Bd]2 [Ac]2 | %3
w: 1.~Lead me gent- ly|home, Fa- ther,|Lead me gent- ly|
w: 2.~Lead me gent- ly|home, Fa- ther,|Lead me gent- ly|
 [GB]6 z2 | [FA]3 [GB] [Af]2 [Ad]2 | [Ge]4 [EG]2 [Ge]2 | [Fd]3 F [EG]2 [E=A]2 | [DB]6 z2 | %8
w: home,|When life’s toils are|end- ed And|part- ing days have|come;|
w: home,|In life’s dark- est|hours, Fa- ther,|When life’s trou- bles|come;|
 [DA]3 [DA] [DA]2 [DA]2 | [DA]4 [EG]4 | [Ec]3 [Ec] [^Fc]2 [Fc]2 | [GB]6 z2 | %12
w: Sin no more shall|tempt me,|Ne’er from Thee I’ll|roam,|
w: Keep my feet from|wan- d’ring,|Lest from Thee I|roam,|
 [FA]2 [GB]2 [Ag]3 [Af] | [Gf]2 [Ge]2 [Ec]2 [EA]2 | ([EG] [GB]2) [GB] [FA]2 [DF]2 | E6 z2 || %16
w: If Thou’lt on- ly|lead me, Fa- ther,|Lead * me gent- ly|home.|
w: Lest I fall up-|on the way- side,|Lead * me gent- ly|home.|
"^Refrain" z8 | [FA]3 [FA] [FA]2 [FA]2 | [EG]4 [EG]2 [EG]2 | [FA]3 [FA] [FA]2 [FA]2 x | %20
w: |Lead me gent- ly|home, Fa- ther,|Lead me gent- ly,|
w: ||||
 [EG]2 [GB]2 [Bg]3 [Bf] | [Af]2 [Ae]2 [Ac]2 [FA]2 | ([EG] [GB]2) [GB] [FA]2 [B,F]2 | E8 z2 |] %24
w: Lest I fall up-|on the way- side,|Lead * me gent- ly|home.|
w: ||||
V:2
 x8 | x8 | x8 | x8 | x8 | x8 | x8 | x8 | x8 | x8 | x8 | x8 | x8 | x8 | x8 | E6 x2 || x8 | x8 | x8 | %19
 x9 | x8 | x8 | x8 | (B,2 C2 B,2) x4 |] %24
V:3
 [E,B,]3 [E,B,] [E,C]2 [E,B,]2 | [E,E]4 [E,E]2 [E,B,]2 | [E,A,]3 [E,A,] (A,B,) (CD) | [E,E]6 z2 | %4
w: ~ ~ ~ ~|~ ~ ~|~ ~ ~ * ~ *|~|
 [B,,D]3 [B,,D] [B,,D]2 [B,,B,]2 | [E,B,]4 [E,B,]2 [E,B,]2 | [F,B,]3 [D,B,] [E,B,]2 [C,F,]2 | %7
w: ~ ~ ~ ~|~ ~ ~|~ ~ ~ ~|
 [B,,F,]6 z2 | [B,,F,]3 [B,,F,] [B,,F,]2 [B,,F,]2 | [=B,,F,]4 [C,E,]4 | %10
w: ~|~ ~ ~ ~|~ ~|
 [A,,A,]3 [A,,A,] [E,=A,]2 [E,A,]2 | [E,B,]6 z2 | [B,,B,]2 [B,,B,]2 [B,,B,]3 [B,,B,] | %13
w: ~ ~ ~ ~|~|~ ~ ~ ~|
 [E,B,]2 [E,B,]2 [A,,A,]2 [A,,C]2 | [B,,B,]3 [B,,B,] [B,,B,]2 [B,,A,]2 | [E,,E,G,]6 z2 || %16
w: ~ ~ ~ ~|~ ~ ~ ~|~|
 B,3 G, E,2 C,2 | D3 (z [F,C]2) [B,D]2 | E6 C,2 | D3 (z B,) [F,C]2 [B,D]2 | %20
w: Lead me gent- ly|home, * Fa-|ther, Lead|me * gent- ly|
 [E,E]2 [E,E]2 [E,E]3 [E,_D] | [A,C]2 [A,C]2 [A,E]2 [A,C]2 | B,3 B, [B,,B,]2 [B,,A,]2 | %23
w: home, Fa- ther, ~|~ ~ ~ ~|~ ~ ~ ~|
 G,2 A,2 G,2 z2 x2 |] %24
w: ~ ~ ~|
V:4
 x8 | x8 | x4 E,2 E,2 | x8 | x8 | x8 | x8 | x8 | x8 | x8 | x8 | x8 | x8 | x8 | x8 | x8 || x8 | %17
 (B,,2 D,2 B,) x3 | B,3 G, E,2 x2 | (B,,2 D,2 B,) x4 | x8 | x8 | B,3 B, x4 | E,8 x2 |] %24

